dist/assets/uwm-icons/icon_medical_research.svg

<?xml version="1.0" encoding="UTF-8"?>
<svg width="24px" height="24px" viewBox="0 0 24 24" version="1.1" xmlns="http://www.w3.org/2000/svg" xmlns:xlink="http://www.w3.org/1999/xlink">
    <!-- Generator: Sketch 48.2 (47327) - http://www.bohemiancoding.com/sketch -->
    <title>icon_medical_research</title>
    <desc>Created with Sketch.</desc>
    <defs></defs>
    <g id="Icons" stroke="none" stroke-width="1" fill="none" fill-rule="evenodd">
        <g id="icon_medical_research">
            <rect id="Rectangle" fill="#FFFFFF" x="0" y="0" width="24" height="24"></rect>
            <path d="M19.7065549,18.7531108 C19.3381914,19.1018442 18.8565568,19.2932806 18.3504061,19.2932806 L13.0604949,19.2932806 C13.796291,18.5036054 13.8633226,17.2570353 13.1985924,16.3339927 L12.2247721,14.9805373 L19.1392689,14.9805373 L19.8970985,16.0337566 C20.5068999,16.8808627 20.4231104,18.075745 19.7065549,18.7531108 Z M4.14187712,18.8635058 C3.58017706,18.3217408 3.53052401,17.3821071 4.02922678,16.7235658 L4.27935399,16.3936571 L12.2167035,16.3936571 C12.2688392,16.3936571 12.3169406,16.3799375 12.3616283,16.3582413 L12.6465126,16.7541956 C13.1219405,17.4146513 13.0573916,18.3456703 12.5000362,18.8724395 C12.2129795,19.1442792 11.8374784,19.2932806 11.4433573,19.2932806 L5.20817625,19.2932806 C4.80846925,19.2932806 4.42986478,19.1407696 4.14187712,18.8635058 Z M7.10926719,12.6571374 L7.10926719,8.40054878 L9.69432882,8.40054878 L9.69432882,12.6523515 L11.8781318,15.6872567 L4.81436554,15.6872567 L7.10926719,12.6571374 Z M12.9298453,11.0056793 L12.9298453,5.725544 C12.9298453,5.71852466 12.9264317,5.71310063 12.9261214,5.70640036 L16.2786328,5.70640036 C16.2783225,5.71310063 16.2749089,5.71852466 16.2749089,5.725544 L16.2749089,11.0005743 L18.6306355,14.2738179 L11.7161387,14.2738179 L11.101372,13.4196924 L12.9298453,11.0056793 Z M20.4494886,15.6132346 L16.9622932,10.76766 L16.9622932,5.725544 C16.9622932,5.71852466 16.9588796,5.71310063 16.9585692,5.70640036 L17.5373375,5.70640036 C17.7272604,5.70640036 17.8808745,5.54846532 17.8808745,5.35320018 C17.8808745,5.15793504 17.7272604,5 17.5373375,5 L11.4805971,5 C11.2903639,5 11.1367498,5.15793504 11.1367498,5.35320018 C11.1367498,5.54846532 11.2903639,5.70640036 11.4805971,5.70640036 L12.246185,5.70640036 C12.2458746,5.71310063 12.242461,5.71852466 12.242461,5.725544 L12.242461,10.762555 L10.6771488,12.8300683 L10.3814028,12.4187991 L10.3814028,8.40054878 L10.7835925,8.40054878 C10.9735154,8.40054878 11.1271295,8.24229468 11.1271295,8.04702955 C11.1271295,7.85176441 10.9735154,7.69382937 10.7835925,7.69382937 L5.86794108,7.69382937 C5.67801819,7.69382937 5.52440408,7.85176441 5.52440408,8.04702955 C5.52440408,8.24229468 5.67801819,8.40054878 5.86794108,8.40054878 L6.42188286,8.40054878 L6.42188286,12.4143322 L3.4870776,16.2893242 C2.77207376,17.2331057 2.85307029,18.5903899 3.67203519,19.3787888 C4.08756911,19.7798481 4.63344226,20 5.20817625,20 L11.4433573,20 C11.5209402,20 11.5982127,19.9952141 11.6745543,19.9872376 C11.6956568,19.9913854 11.7148974,20 11.7369309,20 L18.3504061,20 C19.0297218,20 19.6761424,19.742199 20.1717419,19.2734988 C21.1592168,18.3392891 21.2786944,16.7656818 20.4494886,15.6132346 Z" id="Fill-97" fill="#000000"></path>
        </g>
    </g>
</svg>

<svg width="24" height="24" xmlns="http://www.w3.org/2000/svg"><g fill="none" fill-rule="evenodd"><path fill="#FFF" d="M0 0h24v24H0z"/><path d="M19.707 18.753c-.369.349-.85.54-1.357.54h-5.29c.736-.79.803-2.036.139-2.959l-.974-1.353h6.914l.758 1.053c.61.847.526 2.042-.19 2.72zm-15.565.11c-.562-.541-.611-1.48-.113-2.14l.25-.33h7.938c.052 0 .1-.013.145-.035l.285.396c.475.66.41 1.592-.147 2.118a1.53 1.53 0 0 1-1.057.421H5.208c-.4 0-.778-.152-1.066-.43zm2.967-6.206V8.401h2.585v4.251l2.184 3.035H4.814l2.295-3.03zm5.82-1.651v-5.28c0-.007-.003-.013-.003-.02h3.353c0 .007-.004.013-.004.02V11l2.356 3.273h-6.915l-.615-.854 1.829-2.414zm7.52 4.607l-3.487-4.845V5.726c0-.007-.003-.013-.003-.02h.578c.19 0 .344-.158.344-.353A.348.348 0 0 0 17.537 5h-6.056a.348.348 0 0 0-.344.353c0 .195.153.353.344.353h.765c0 .007-.004.013-.004.02v5.037l-1.565 2.067-.296-.411V8.4h.403c.19 0 .343-.159.343-.354a.348.348 0 0 0-.343-.353H5.868a.348.348 0 0 0-.344.353.35.35 0 0 0 .344.354h.554v4.013L3.487 16.29c-.715.944-.634 2.301.185 3.09.416.4.961.621 1.536.621h6.235c.078 0 .155-.005.232-.013.02.004.04.013.062.013h6.613a2.64 2.64 0 0 0 1.822-.727c.987-.934 1.107-2.507.277-3.66z" fill="#000"/></g></svg>
